!!!COM: Bach, Johann Sebastian
!!!CDT: 1685/3//-1750/7/28/
!!!OTL@@DE: Wer nur den lieben Gott laesst walten
!!!AGN: 4-Part Chorale
!!!SCT: BH 146
!!!SCT: BWV 434
**harm	**root	**kern	**kern	**kern	**kern
!	!	!bass	!tenor	!alto	!soprno
*	*Iorgan	*Iorgan	*Iorgan	*Iorgan	*Iorgan
*	*	*clefF2	*clefF2	*clefG2	*clefG2
*k[b-]	*k[b-]	*k[b-]	*k[b-]	*k[b-]	*k[b-]
*d:	*d:	*d:	*d:	*d:	*d:
*M4/4	*M4/4	*M4/4	*M4/4	*M4/4	*M4/4
*met(c)	*met(c)	*met(c)	*met(c)	*met(c)	*met(c)
*MM60	*MM60	*MM60	*MM60	*MM60	*MM60
*>[A,A,B]	*>[A,A,B]	*>[A,A,B]	*>[A,A,B]	*>[A,A,B]	*>[A,A,B]
*>A	*>A	*>A	*>A	*>A	*>A
i	4AA	4d	8d	8f	4a
.	.	.	8e	8g	.
=1	=1	=1	=1	=1	=1
ib	4AA	4F	8f	4a	4dd
.	.	.	8e	.	.
V	4EE	4A	8d	4a	4ee
.	.	.	8c#	.	.
i	4AA	4D	4d	8a	4ff
.	.	.	.	8b	.
viiob	4GG#	4E	4G	4cc#	4ee
=2	=2	=2	=2	=2	=2
ib	4AA	4F	8A	8dd	4dd
.	.	.	8a	8cc	.
iiob	4BB	4G	8g	4b-	4ee
.	.	.	8f	.	.
V	2EE	2A	4.e	2a	4.cc#
.	.	.	8d	.	8b
=3	=3	=3	=3	=3	=3
V;	4EE;	4A;	4c#;	4e;	4a;
v	4EE	4A	4e	4a	4cc
i7	4AA	4d	4f	4a	4cc
iio	4BB	8e	8g	4g	4b-
.	.	8d	8f	.	.
=4	=4	=4	=4	=4	=4
V7b	8EE	8c#	8e	8g	4a
V7c/IV	8AA	8c	8d	8f#	.
IVb	8DD	8B	8d	8g	4dd
Fr	8DD#	8B-	8e	8g#	.
ic	8AA	8A	8f	8a	8dd
Vb/V	8BB	8G#	[8e	8b	8ee
V7	4EE	4A	8e]	4a	4cc#
.	.	.	16f	.	.
.	.	.	16g	.	.
!!linebreak: 2
=5	=5	=5	=5	=5	=5
i;	2.AA;	2.D;	2.f;	2.a;	2.dd;
=:|!	=:|!	=:|!	=:|!	=:|!	=:|!
*>B	*>B	*>B	*>B	*>B	*>B
V	4EE	4A	4a	4cc#	4ee
=6	=6	=6	=6	=6	=6
i	4AA	4d	4a	4dd	4ff
-VII	4GG	4e	4g	4cc	4gg
III	4CC	8f	4f	4cc	4aa
.	.	8e	.	.	.
i	4AA	8d	4f	4dd	4aa
.	.	8c	.	.	.
=7	=7	=7	=7	=7	=7
iv7	4DD	8B-	4f	4dd	8gg
.	.	8G	.	.	16aa
.	.	.	.	.	16bb-
V7/III	4GG	4c	4e	8cc	4gg
.	.	.	.	8b-	.
III;	4CC;	4F;	4c;	4a;	4ff;
I	4AA	4F#	4d	4a	4aa
=8	=8	=8	=8	=8	=8
IV	8DD	8G	8d	8b	4gg
V7	8EE	8A	8a	8cc#	.
vi7	8FF	8B-	8a	4dd	4ff
viio/-VII	8FF#	8B	8a-	.	.
-VII	8GG	8c	4g	8cc	4ee
viio7	8GG#	8c#	.	8b-	.
i	4AA	4d	8f	4a	8dd
.	.	.	8e	.	8ee
=9	=9	=9	=9	=9	=9
viio7/V	4DD#	4G#	4d	4b	8ff
.	.	.	.	.	8ee
V7	4EE	4A	4c#	8a	4ee
.	.	.	.	8g	.
I;	4AA;	4D;	4A;	4f#;	4dd;
==	==	==	==	==	==
*-	*-	*-	*-	*-	*-
!!chor2scor: -l 2 -s 0.6 -o %b.pmx
!!!YEC: Copyright 2003 by Craig Stuart Sapp
!!!license: GNU General Public License (http://www.gnu.org/copyleft/gpl.html)
!!!SMA: 371 Bach Chorales, edited by Ludwig Erk, C.F. Peters
!!!PDT: 1850, 1865
!!!ONB: Harmony and Root analysis done manually by Craig Sapp
